X: 1
T: Todlen Hame
B: RSCDS 16-6(I)
M: 6/8
L: 1/8
K: D
d/e/ \
| "D"f>ed "G"B>cd | "D"A>Bd "A7"ede \
| "D"f>ed "G"B>cd | "A7"A>Bd "D"d2 :|
|: f \
| "G"g>ag "D"f2f | "Em"e{f}gf "A7"e>de \
| "D"f>ed "G"B>cd | "A7"A>Bd "D"d2 :|
